images/3246593.svg

<?xml version="1.0" encoding="UTF-8"?>
<svg xmlns="http://www.w3.org/2000/svg" xmlns:xlink="http://www.w3.org/1999/xlink" width="300pt" height="300pt" viewBox="0 0 300 300" version="1.1">
<defs>
<g>
<symbol overflow="visible" id="glyph0-0">
<path style="stroke:none;" d="M 0.796875 2.828125 L 0.796875 -11.28125 L 8.796875 -11.28125 L 8.796875 2.828125 Z M 1.703125 1.9375 L 7.90625 1.9375 L 7.90625 -10.390625 L 1.703125 -10.390625 Z M 1.703125 1.9375 "/>
</symbol>
<symbol overflow="visible" id="glyph0-1">
<path style="stroke:none;" d="M 1.578125 -11.671875 L 3.703125 -11.671875 L 8.875 -1.90625 L 8.875 -11.671875 L 10.40625 -11.671875 L 10.40625 0 L 8.28125 0 L 3.109375 -9.765625 L 3.109375 0 L 1.578125 0 Z M 1.578125 -11.671875 "/>
</symbol>
<symbol overflow="visible" id="glyph0-2">
<path style="stroke:none;" d="M 1.578125 -11.671875 L 3.15625 -11.671875 L 3.15625 -6.890625 L 8.890625 -6.890625 L 8.890625 -11.671875 L 10.46875 -11.671875 L 10.46875 0 L 8.890625 0 L 8.890625 -5.5625 L 3.15625 -5.5625 L 3.15625 0 L 1.578125 0 Z M 1.578125 -11.671875 "/>
</symbol>
<symbol overflow="visible" id="glyph1-0">
<path style="stroke:none;" d="M 0.640625 2.296875 L 0.640625 -9.171875 L 7.140625 -9.171875 L 7.140625 2.296875 Z M 1.375 1.578125 L 6.421875 1.578125 L 6.421875 -8.4375 L 1.375 -8.4375 Z M 1.375 1.578125 "/>
</symbol>
<symbol overflow="visible" id="glyph1-1">
<path style="stroke:none;" d="M 2.5 -1.078125 L 6.96875 -1.078125 L 6.96875 0 L 0.953125 0 L 0.953125 -1.078125 C 1.441406 -1.578125 2.101562 -2.25 2.9375 -3.09375 C 3.78125 -3.945312 4.3125 -4.5 4.53125 -4.75 C 4.9375 -5.207031 5.21875 -5.597656 5.375 -5.921875 C 5.539062 -6.242188 5.625 -6.554688 5.625 -6.859375 C 5.625 -7.367188 5.445312 -7.78125 5.09375 -8.09375 C 4.75 -8.40625 4.289062 -8.5625 3.71875 -8.5625 C 3.3125 -8.5625 2.882812 -8.492188 2.4375 -8.359375 C 2 -8.222656 1.523438 -8.007812 1.015625 -7.71875 L 1.015625 -9.015625 C 1.535156 -9.222656 2.019531 -9.378906 2.46875 -9.484375 C 2.914062 -9.597656 3.320312 -9.65625 3.6875 -9.65625 C 4.675781 -9.65625 5.460938 -9.40625 6.046875 -8.90625 C 6.628906 -8.414062 6.921875 -7.757812 6.921875 -6.9375 C 6.921875 -6.550781 6.847656 -6.179688 6.703125 -5.828125 C 6.554688 -5.484375 6.289062 -5.078125 5.90625 -4.609375 C 5.800781 -4.484375 5.460938 -4.125 4.890625 -3.53125 C 4.328125 -2.945312 3.53125 -2.128906 2.5 -1.078125 Z M 2.5 -1.078125 "/>
</symbol>
</g>
</defs>
<g id="surface54529">
<rect x="0" y="0" width="300" height="300" style="fill:rgb(100%,100%,100%);fill-opacity:1;stroke:none;"/>
<path style="fill:none;stroke-width:1.2;stroke-linecap:butt;stroke-linejoin:miter;stroke:rgb(0%,0%,0%);stroke-opacity:1;stroke-miterlimit:10;" d="M 130.875 200.074219 L 119.632812 215.546875 "/>
<path style="fill:none;stroke-width:1.2;stroke-linecap:butt;stroke-linejoin:miter;stroke:rgb(0%,0%,100%);stroke-opacity:1;stroke-miterlimit:10;" d="M 119.632812 215.546875 L 108.390625 231.015625 "/>
<path style="fill:none;stroke-width:1.2;stroke-linecap:butt;stroke-linejoin:miter;stroke:rgb(0%,0%,0%);stroke-opacity:1;stroke-miterlimit:10;" d="M 121.34375 197.878906 L 112.351562 210.253906 "/>
<path style="fill:none;stroke-width:1.2;stroke-linecap:butt;stroke-linejoin:miter;stroke:rgb(0%,0%,100%);stroke-opacity:1;stroke-miterlimit:10;" d="M 112.351562 210.253906 L 103.359375 222.632812 "/>
<path style="fill:none;stroke-width:1.2;stroke-linecap:butt;stroke-linejoin:miter;stroke:rgb(0%,0%,0%);stroke-opacity:1;stroke-miterlimit:10;" d="M 130.875 200.074219 L 169.125 200.074219 "/>
<path style="fill:none;stroke-width:1.2;stroke-linecap:butt;stroke-linejoin:miter;stroke:rgb(0%,0%,100%);stroke-opacity:1;stroke-miterlimit:10;" d="M 108.390625 169.128906 L 119.632812 184.601562 "/>
<path style="fill:none;stroke-width:1.2;stroke-linecap:butt;stroke-linejoin:miter;stroke:rgb(0%,0%,0%);stroke-opacity:1;stroke-miterlimit:10;" d="M 119.632812 184.601562 L 130.875 200.074219 "/>
<path style="fill:none;stroke-width:1.2;stroke-linecap:butt;stroke-linejoin:miter;stroke:rgb(0%,0%,100%);stroke-opacity:1;stroke-miterlimit:10;" d="M 108.390625 231.015625 L 72.015625 219.199219 "/>
<path style=" stroke:none;fill-rule:nonzero;fill:rgb(100%,100%,100%);fill-opacity:1;" d="M 102.390625 221.515625 L 114.390625 221.515625 L 114.390625 240.515625 L 102.390625 240.515625 Z M 102.390625 221.515625 "/>
<g style="fill:rgb(0%,0%,100%);fill-opacity:1;">
  <use xlink:href="#glyph0-1" x="102.390625" y="236.367188"/>
</g>
<path style="fill:none;stroke-width:1.2;stroke-linecap:butt;stroke-linejoin:miter;stroke:rgb(0%,0%,100%);stroke-opacity:1;stroke-miterlimit:10;" d="M 72.015625 219.199219 L 72.015625 180.949219 "/>
<path style=" stroke:none;fill-rule:nonzero;fill:rgb(100%,100%,100%);fill-opacity:1;" d="M 60.015625 209.699219 L 84.015625 209.699219 L 84.015625 228.699219 L 60.015625 228.699219 Z M 60.015625 209.699219 "/>
<g style="fill:rgb(0%,0%,100%);fill-opacity:1;">
  <use xlink:href="#glyph0-1" x="60.015625" y="224.550781"/>
  <use xlink:href="#glyph0-2" x="71.984375" y="224.550781"/>
</g>
<path style="fill:none;stroke-width:1.2;stroke-linecap:butt;stroke-linejoin:miter;stroke:rgb(0%,0%,100%);stroke-opacity:1;stroke-miterlimit:10;" d="M 72.015625 180.949219 L 108.390625 169.128906 "/>
<path style="fill:none;stroke-width:1.2;stroke-linecap:butt;stroke-linejoin:miter;stroke:rgb(0%,0%,100%);stroke-opacity:1;stroke-miterlimit:10;" d="M 78.433594 188.324219 L 107.535156 178.871094 "/>
<path style=" stroke:none;fill-rule:nonzero;fill:rgb(100%,100%,100%);fill-opacity:1;" d="M 66.015625 171.449219 L 78.015625 171.449219 L 78.015625 190.449219 L 66.015625 190.449219 Z M 66.015625 171.449219 "/>
<g style="fill:rgb(0%,0%,100%);fill-opacity:1;">
  <use xlink:href="#glyph0-1" x="66.015625" y="186.300781"/>
</g>
<path style=" stroke:none;fill-rule:nonzero;fill:rgb(100%,100%,100%);fill-opacity:1;" d="M 102.390625 159.628906 L 114.390625 159.628906 L 114.390625 178.628906 L 102.390625 178.628906 Z M 102.390625 159.628906 "/>
<g style="fill:rgb(0%,0%,100%);fill-opacity:1;">
  <use xlink:href="#glyph0-1" x="102.390625" y="174.480469"/>
</g>
<path style="fill:none;stroke-width:1.2;stroke-linecap:butt;stroke-linejoin:miter;stroke:rgb(0%,0%,0%);stroke-opacity:1;stroke-miterlimit:10;" d="M 169.125 200.074219 L 180.367188 184.601562 "/>
<path style="fill:none;stroke-width:1.2;stroke-linecap:butt;stroke-linejoin:miter;stroke:rgb(0%,0%,100%);stroke-opacity:1;stroke-miterlimit:10;" d="M 180.367188 184.601562 L 191.609375 169.128906 "/>
<path style="fill:none;stroke-width:1.2;stroke-linecap:butt;stroke-linejoin:miter;stroke:rgb(0%,0%,0%);stroke-opacity:1;stroke-miterlimit:10;" d="M 178.65625 202.269531 L 187.648438 189.890625 "/>
<path style="fill:none;stroke-width:1.2;stroke-linecap:butt;stroke-linejoin:miter;stroke:rgb(0%,0%,100%);stroke-opacity:1;stroke-miterlimit:10;" d="M 187.648438 189.890625 L 196.640625 177.511719 "/>
<path style="fill:none;stroke-width:1.2;stroke-linecap:butt;stroke-linejoin:miter;stroke:rgb(0%,0%,100%);stroke-opacity:1;stroke-miterlimit:10;" d="M 191.609375 231.015625 L 180.367188 215.546875 "/>
<path style="fill:none;stroke-width:1.2;stroke-linecap:butt;stroke-linejoin:miter;stroke:rgb(0%,0%,0%);stroke-opacity:1;stroke-miterlimit:10;" d="M 180.367188 215.546875 L 169.125 200.074219 "/>
<path style="fill:none;stroke-width:1.2;stroke-linecap:butt;stroke-linejoin:miter;stroke:rgb(0%,0%,100%);stroke-opacity:1;stroke-miterlimit:10;" d="M 191.609375 169.128906 L 227.984375 180.949219 "/>
<path style=" stroke:none;fill-rule:nonzero;fill:rgb(100%,100%,100%);fill-opacity:1;" d="M 185.609375 159.628906 L 197.609375 159.628906 L 197.609375 178.628906 L 185.609375 178.628906 Z M 185.609375 159.628906 "/>
<g style="fill:rgb(0%,0%,100%);fill-opacity:1;">
  <use xlink:href="#glyph0-1" x="185.609375" y="174.480469"/>
</g>
<path style="fill:none;stroke-width:1.2;stroke-linecap:butt;stroke-linejoin:miter;stroke:rgb(0%,0%,100%);stroke-opacity:1;stroke-miterlimit:10;" d="M 227.984375 180.949219 L 227.984375 219.199219 "/>
<path style=" stroke:none;fill-rule:nonzero;fill:rgb(100%,100%,100%);fill-opacity:1;" d="M 215.984375 171.449219 L 239.984375 171.449219 L 239.984375 190.449219 L 215.984375 190.449219 Z M 215.984375 171.449219 "/>
<g style="fill:rgb(0%,0%,100%);fill-opacity:1;">
  <use xlink:href="#glyph0-1" x="215.984375" y="186.300781"/>
  <use xlink:href="#glyph0-2" x="227.953125" y="186.300781"/>
</g>
<path style="fill:none;stroke-width:1.2;stroke-linecap:butt;stroke-linejoin:miter;stroke:rgb(0%,0%,100%);stroke-opacity:1;stroke-miterlimit:10;" d="M 227.984375 219.199219 L 191.609375 231.015625 "/>
<path style="fill:none;stroke-width:1.2;stroke-linecap:butt;stroke-linejoin:miter;stroke:rgb(0%,0%,100%);stroke-opacity:1;stroke-miterlimit:10;" d="M 221.566406 211.820312 L 192.464844 221.277344 "/>
<path style=" stroke:none;fill-rule:nonzero;fill:rgb(100%,100%,100%);fill-opacity:1;" d="M 221.984375 209.699219 L 233.984375 209.699219 L 233.984375 228.699219 L 221.984375 228.699219 Z M 221.984375 209.699219 "/>
<g style="fill:rgb(0%,0%,100%);fill-opacity:1;">
  <use xlink:href="#glyph0-1" x="221.984375" y="224.550781"/>
</g>
<path style=" stroke:none;fill-rule:nonzero;fill:rgb(100%,100%,100%);fill-opacity:1;" d="M 185.609375 221.515625 L 197.609375 221.515625 L 197.609375 240.515625 L 185.609375 240.515625 Z M 185.609375 221.515625 "/>
<g style="fill:rgb(0%,0%,100%);fill-opacity:1;">
  <use xlink:href="#glyph0-1" x="185.609375" y="236.367188"/>
</g>
<path style="fill:none;stroke-width:1.2;stroke-linecap:butt;stroke-linejoin:miter;stroke:rgb(0%,0%,0%);stroke-opacity:1;stroke-miterlimit:10;" d="M 156.410156 94.894531 L 174.664062 89.1875 "/>
<path style="fill:none;stroke-width:1.2;stroke-linecap:butt;stroke-linejoin:miter;stroke:rgb(0%,0%,100%);stroke-opacity:1;stroke-miterlimit:10;" d="M 174.664062 89.1875 L 192.917969 83.484375 "/>
<path style="fill:none;stroke-width:1.2;stroke-linecap:butt;stroke-linejoin:miter;stroke:rgb(0%,0%,0%);stroke-opacity:1;stroke-miterlimit:10;" d="M 156.410156 94.894531 L 142.34375 81.9375 "/>
<path style="fill:none;stroke-width:1.2;stroke-linecap:butt;stroke-linejoin:miter;stroke:rgb(0%,0%,100%);stroke-opacity:1;stroke-miterlimit:10;" d="M 142.34375 81.9375 L 128.273438 68.984375 "/>
<path style="fill:none;stroke-width:1.2;stroke-linecap:butt;stroke-linejoin:miter;stroke:rgb(0%,0%,0%);stroke-opacity:1;stroke-miterlimit:10;" d="M 156.410156 94.894531 L 152.226562 113.554688 "/>
<path style="fill:none;stroke-width:1.2;stroke-linecap:butt;stroke-linejoin:miter;stroke:rgb(0%,0%,100%);stroke-opacity:1;stroke-miterlimit:10;" d="M 152.226562 113.554688 L 148.039062 132.214844 "/>
<path style="fill:none;stroke-width:1.2;stroke-linecap:butt;stroke-linejoin:miter;stroke:rgb(0%,0%,100%);stroke-opacity:1;stroke-miterlimit:10;" d="M 192.917969 83.484375 L 221.054688 109.394531 "/>
<path style=" stroke:none;fill-rule:nonzero;fill:rgb(100%,100%,100%);fill-opacity:1;" d="M 180.917969 73.984375 L 204.917969 73.984375 L 204.917969 92.984375 L 180.917969 92.984375 Z M 180.917969 73.984375 "/>
<g style="fill:rgb(0%,0%,100%);fill-opacity:1;">
  <use xlink:href="#glyph0-1" x="180.917969" y="88.835938"/>
  <use xlink:href="#glyph0-2" x="192.886719" y="88.835938"/>
</g>
<path style=" stroke:none;fill-rule:nonzero;fill:rgb(100%,100%,100%);fill-opacity:1;" d="M 205.054688 97.894531 L 238.054688 97.894531 L 238.054688 120.894531 L 205.054688 120.894531 Z M 205.054688 97.894531 "/>
<g style="fill:rgb(0%,0%,100%);fill-opacity:1;">
  <use xlink:href="#glyph0-1" x="205.054688" y="112.746094"/>
  <use xlink:href="#glyph0-2" x="217.023438" y="112.746094"/>
</g>
<g style="fill:rgb(0%,0%,100%);fill-opacity:1;">
  <use xlink:href="#glyph1-1" x="229.054688" y="117.628906"/>
</g>
<path style="fill:none;stroke-width:1.2;stroke-linecap:butt;stroke-linejoin:miter;stroke:rgb(0%,0%,100%);stroke-opacity:1;stroke-miterlimit:10;" d="M 128.273438 68.984375 L 91.765625 80.394531 "/>
<path style=" stroke:none;fill-rule:nonzero;fill:rgb(100%,100%,100%);fill-opacity:1;" d="M 116.273438 59.484375 L 140.273438 59.484375 L 140.273438 78.484375 L 116.273438 78.484375 Z M 116.273438 59.484375 "/>
<g style="fill:rgb(0%,0%,100%);fill-opacity:1;">
  <use xlink:href="#glyph0-1" x="116.273438" y="74.335938"/>
  <use xlink:href="#glyph0-2" x="128.242188" y="74.335938"/>
</g>
<path style=" stroke:none;fill-rule:nonzero;fill:rgb(100%,100%,100%);fill-opacity:1;" d="M 58.765625 68.894531 L 91.765625 68.894531 L 91.765625 91.894531 L 58.765625 91.894531 Z M 58.765625 68.894531 "/>
<g style="fill:rgb(0%,0%,100%);fill-opacity:1;">
  <use xlink:href="#glyph0-2" x="58.765625" y="83.746094"/>
</g>
<g style="fill:rgb(0%,0%,100%);fill-opacity:1;">
  <use xlink:href="#glyph1-1" x="70.796875" y="88.628906"/>
</g>
<g style="fill:rgb(0%,0%,100%);fill-opacity:1;">
  <use xlink:href="#glyph0-1" x="79.276367" y="83.746094"/>
</g>
<path style="fill:none;stroke-width:1.2;stroke-linecap:butt;stroke-linejoin:miter;stroke:rgb(0%,0%,100%);stroke-opacity:1;stroke-miterlimit:10;" d="M 148.039062 132.214844 L 111.53125 143.628906 "/>
<path style=" stroke:none;fill-rule:nonzero;fill:rgb(100%,100%,100%);fill-opacity:1;" d="M 136.039062 122.714844 L 160.039062 122.714844 L 160.039062 141.714844 L 136.039062 141.714844 Z M 136.039062 122.714844 "/>
<g style="fill:rgb(0%,0%,100%);fill-opacity:1;">
  <use xlink:href="#glyph0-1" x="136.039062" y="137.566406"/>
  <use xlink:href="#glyph0-2" x="148.007812" y="137.566406"/>
</g>
<path style=" stroke:none;fill-rule:nonzero;fill:rgb(100%,100%,100%);fill-opacity:1;" d="M 78.53125 132.128906 L 111.53125 132.128906 L 111.53125 155.128906 L 78.53125 155.128906 Z M 78.53125 132.128906 "/>
<g style="fill:rgb(0%,0%,100%);fill-opacity:1;">
  <use xlink:href="#glyph0-2" x="78.53125" y="146.980469"/>
</g>
<g style="fill:rgb(0%,0%,100%);fill-opacity:1;">
  <use xlink:href="#glyph1-1" x="90.5625" y="151.863281"/>
</g>
<g style="fill:rgb(0%,0%,100%);fill-opacity:1;">
  <use xlink:href="#glyph0-1" x="99.041992" y="146.980469"/>
</g>
</g>
</svg>

<svg xmlns="http://www.w3.org/2000/svg" xmlns:xlink="http://www.w3.org/1999/xlink" width="300pt" height="300pt" viewBox="0 0 300 300"><defs><symbol overflow="visible"><path d="M.797 2.828v-14.11h8V2.83zm.906-.89h6.203v-12.33H1.703zm0 0"/></symbol><symbol overflow="visible" id="a"><path d="M1.578-11.672h2.125l5.172 9.766v-9.766h1.53V0H8.282L3.11-9.766V0H1.577zm0 0"/></symbol><symbol overflow="visible" id="b"><path d="M1.578-11.672h1.578v4.78H8.89v-4.78h1.58V0H8.89v-5.563H3.157V0H1.578zm0 0"/></symbol><symbol overflow="visible"><path d="M.64 2.297v-11.47h6.5v11.47zm.735-.72h5.047V-8.436H1.375zm0 0"/></symbol><symbol overflow="visible" id="c"><path d="M2.5-1.078h4.47V0H.952v-1.078c.488-.5 1.15-1.172 1.985-2.016C3.78-3.944 4.312-4.5 4.53-4.75c.407-.457.69-.848.845-1.172.164-.32.25-.633.25-.937 0-.507-.18-.92-.53-1.234-.345-.312-.806-.47-1.376-.47-.408.002-.837.072-1.283.205-.437.137-.914.352-1.42.64v-1.296c.518-.207 1.003-.363 1.452-.468.444-.114.85-.172 1.217-.172.99 0 1.774.25 2.36.75.582.492.875 1.148.875 1.97 0 .385-.074.756-.22 1.108-.147.344-.413.75-.796 1.22-.105.124-.445.483-1.015 1.077-.562.585-1.36 1.4-2.39 2.452zm0 0"/></symbol></defs><g><path fill="#fff" d="M0 0h300v300H0z"/><path d="M130.875 200.074l-11.242 15.473" stroke-width="1.2" stroke="#000" stroke-miterlimit="10" fill="none"/><path d="M119.633 215.547l-11.242 15.47" stroke-width="1.2" stroke="#00f" stroke-miterlimit="10" fill="none"/><path d="M121.344 197.88l-8.992 12.374" stroke-width="1.2" stroke="#000" stroke-miterlimit="10" fill="none"/><path d="M112.352 210.254l-8.993 12.38" stroke-width="1.2" stroke="#00f" stroke-miterlimit="10" fill="none"/><path d="M130.875 200.074h38.25" stroke-width="1.2" stroke="#000" stroke-miterlimit="10" fill="none"/><path d="M108.39 169.13l11.243 15.472" stroke-width="1.2" stroke="#00f" stroke-miterlimit="10" fill="none"/><path d="M119.633 184.602l11.242 15.472" stroke-width="1.2" stroke="#000" stroke-miterlimit="10" fill="none"/><path d="M108.39 231.016L72.017 219.2" stroke-width="1.2" stroke="#00f" stroke-miterlimit="10" fill="none"/><path d="M102.39 221.516h12v19h-12zm0 0" fill="#fff"/><use xlink:href="#a" x="102.391" y="236.367" fill="#00f"/><path d="M72.016 219.2v-38.25" stroke-width="1.2" stroke="#00f" stroke-miterlimit="10" fill="none"/><path d="M60.016 209.7h24v19h-24zm0 0" fill="#fff"/><g fill="#00f"><use xlink:href="#a" x="60.016" y="224.551"/><use xlink:href="#b" x="71.984" y="224.551"/></g><path d="M72.016 180.95l36.375-11.82M78.434 188.324l29.1-9.453" stroke-width="1.2" stroke="#00f" stroke-miterlimit="10" fill="none"/><path d="M66.016 171.45h12v19h-12zm0 0" fill="#fff"/><use xlink:href="#a" x="66.016" y="186.301" fill="#00f"/><path d="M102.39 159.63h12v19h-12zm0 0" fill="#fff"/><use xlink:href="#a" x="102.391" y="174.48" fill="#00f"/><path d="M169.125 200.074l11.242-15.472" stroke-width="1.2" stroke="#000" stroke-miterlimit="10" fill="none"/><path d="M180.367 184.602l11.242-15.473" stroke-width="1.2" stroke="#00f" stroke-miterlimit="10" fill="none"/><path d="M178.656 202.27l8.992-12.38" stroke-width="1.2" stroke="#000" stroke-miterlimit="10" fill="none"/><path d="M187.648 189.89l8.993-12.378M191.61 231.016l-11.243-15.47" stroke-width="1.2" stroke="#00f" stroke-miterlimit="10" fill="none"/><path d="M180.367 215.547l-11.242-15.473" stroke-width="1.2" stroke="#000" stroke-miterlimit="10" fill="none"/><path d="M191.61 169.13l36.374 11.82" stroke-width="1.2" stroke="#00f" stroke-miterlimit="10" fill="none"/><path d="M185.61 159.63h12v19h-12zm0 0" fill="#fff"/><use xlink:href="#a" x="185.609" y="174.48" fill="#00f"/><path d="M227.984 180.95v38.25" stroke-width="1.2" stroke="#00f" stroke-miterlimit="10" fill="none"/><path d="M215.984 171.45h24v19h-24zm0 0" fill="#fff"/><g fill="#00f"><use xlink:href="#a" x="215.984" y="186.301"/><use xlink:href="#b" x="227.953" y="186.301"/></g><path d="M227.984 219.2l-36.375 11.816M221.566 211.82l-29.1 9.457" stroke-width="1.2" stroke="#00f" stroke-miterlimit="10" fill="none"/><path d="M221.984 209.7h12v19h-12zm0 0" fill="#fff"/><use xlink:href="#a" x="221.984" y="224.551" fill="#00f"/><path d="M185.61 221.516h12v19h-12zm0 0" fill="#fff"/><use xlink:href="#a" x="185.609" y="236.367" fill="#00f"/><path d="M156.41 94.895l18.254-5.707" stroke-width="1.2" stroke="#000" stroke-miterlimit="10" fill="none"/><path d="M174.664 89.188l18.254-5.704" stroke-width="1.2" stroke="#00f" stroke-miterlimit="10" fill="none"/><path d="M156.41 94.895l-14.066-12.957" stroke-width="1.2" stroke="#000" stroke-miterlimit="10" fill="none"/><path d="M142.344 81.938l-14.07-12.954" stroke-width="1.2" stroke="#00f" stroke-miterlimit="10" fill="none"/><path d="M156.41 94.895l-4.183 18.66" stroke-width="1.2" stroke="#000" stroke-miterlimit="10" fill="none"/><path d="M152.227 113.555l-4.188 18.66M192.918 83.484l28.137 25.91" stroke-width="1.2" stroke="#00f" stroke-miterlimit="10" fill="none"/><path d="M180.918 73.984h24v19h-24zm0 0" fill="#fff"/><g fill="#00f"><use xlink:href="#a" x="180.918" y="88.836"/><use xlink:href="#b" x="192.887" y="88.836"/></g><path d="M205.055 97.895h33v23h-33zm0 0" fill="#fff"/><g fill="#00f"><use xlink:href="#a" x="205.055" y="112.746"/><use xlink:href="#b" x="217.023" y="112.746"/></g><use xlink:href="#c" x="229.055" y="117.629" fill="#00f"/><path d="M128.273 68.984l-36.507 11.41" stroke-width="1.2" stroke="#00f" stroke-miterlimit="10" fill="none"/><path d="M116.273 59.484h24v19h-24zm0 0" fill="#fff"/><g fill="#00f"><use xlink:href="#a" x="116.273" y="74.336"/><use xlink:href="#b" x="128.242" y="74.336"/></g><path d="M58.766 68.895h33v23h-33zm0 0" fill="#fff"/><use xlink:href="#b" x="58.766" y="83.746" fill="#00f"/><use xlink:href="#c" x="70.797" y="88.629" fill="#00f"/><use xlink:href="#a" x="79.276" y="83.746" fill="#00f"/><path d="M148.04 132.215l-36.51 11.414" stroke-width="1.2" stroke="#00f" stroke-miterlimit="10" fill="none"/><path d="M136.04 122.715h24v19h-24zm0 0" fill="#fff"/><g fill="#00f"><use xlink:href="#a" x="136.039" y="137.566"/><use xlink:href="#b" x="148.008" y="137.566"/></g><path d="M78.53 132.13h33v23h-33zm0 0" fill="#fff"/><use xlink:href="#b" x="78.531" y="146.98" fill="#00f"/><use xlink:href="#c" x="90.563" y="151.863" fill="#00f"/><use xlink:href="#a" x="99.042" y="146.98" fill="#00f"/></g></svg>
